X:7010
T:Grandfather's Tune
T:Sheepshearing
R:Reel
C:Trad.
O:England
M:4/4
L:1/8
Q:1/4=210
K:D
"D"F2A2 B2c2|dcde f2 a2|"Em"g2f2 e2d2|"A"c2B2 A2G2|
"D"F2A2 B2c2|dcde f2 a2|"Em"g2f2 eABc|"D"d2f2 d4:|
|:"Em"e4 f4|g2f2 e4|g2f2 e2d2|"A"c2B2 A2G2|
"D"F2A2 B2c2|dcde f2 a2|"Em"g2f2 eABc|"D"d2f2 d4:|

